svg/gotosocial.svg

<svg xmlns="http://www.w3.org/2000/svg" xml:space="preserve" id="SVGRoot" x="0" y="0" version="1.1" viewBox="0.12 29.2 511.9 453.8"><style>.st1{fill:#c76c33}.st4{fill:#77889b}.st6{fill:#333a42}</style><g id="layer1"><a id="a5675" transform="translate(25.58 -3.739)"><path id="path5669" d="M465.9 305c28.9 24.5 23.8 60 6.2 76.3 8.3 76.2-42.6 73.1-50.8 43.9-24.9 32.8-42.9 21-45.9 18.9-30.7 21.7-80.7 42.6-142.5 42.6-53 0-101.8-15.8-140.9-42.5-19 12.7-38.7 5.1-49.8-12.4-40 42.1-58.9-6-47.5-35.9-28.6-14.2-27.3-48.6 7.3-90.6-1.3-8.9-2-18-2-27.1 0-80.3 55.2-169 125-184.9-45.6-29.7 2.4-65.1 50.4-29.4 16.6-40.3 57.8-40.4 58.9-5.3 63.2-1 98.4 22.4 129.9 38.9 17.2 9 38 18.6 62.3 19.7 29.4 1.4 44.6 32.9 13.3 57.5 18.4 30.8 25.9 62.1 26.1 130.3" style="fill:#df8958"/></a><g id="layer2"><a id="a5675-6" transform="translate(25.58 -3.739)"><path id="path5669-3" d="M388.1 159.2c20.8.1 34.2 6.7 68.8-11.2-1 8.7-6.3 18-17.1 26.6 1.2 2.1 2.5 4.3 3.6 6.4-27.7-2.4-46.4-12.7-55.3-21.8" class="st1"/></a><path id="path5669-2" d="M436.6 332.6c7 27.4 33.7 45.6 61.1 45 8.3 76.2-42.6 73.1-50.8 43.9-24.9 32.8-42.9 21-45.9 18.9-30.7 21.7-80.7 42.6-142.5 42.6-53 0-101.8-15.8-140.9-42.5-19 12.7-38.7 5.1-49.8-12.4-40 42.1-58.9-6-47.5-35.9C-8.3 378-7 343.6 27.6 301.6c-1.3-8.9-2-18-2-27.1 0-80.3 55.2-169.1 125-184.9-18.1-11.8-21.5-24.5-16-33.2 7.2 18.3 31.2 34.8 60.4 36.5-70.2 22.6-49.1 50.4-10.8 71.2 52 81.7 249.2 116.4 252.4 168.5" class="st1"/></g></g><g id="layer4"><path id="path5845-8" d="M172.3 161.1c-12.7 0-26.4 2-41.4 7.5-34.8 12.7-53.2 41.9-60.7 74 22.3-16.1 40.6-26.1 77.6-28 60-3.2 80.6 40.6 81 59.2.4 20.2-8 31.9-23.2 40.3-17.6 9.7-54.3 11.4-64.6 11.2-25.7-.4-41.5-4.7-71.9-11.3 16.6 84 96.5 135.6 191 135.6S434.3 398 450.9 314c-30.4 6.6-46.2 10.9-71.9 11.3-10.2.2-47-1.5-64.6-11.2-15.2-8.4-23.6-20.1-23.2-40.3.4-18.7 21-62.4 81-59.2 37 2 55.2 11.9 77.6 28-7.6-32.1-26-61.3-60.7-74-60-21.8-100.3 10.9-129.1 11.6-21.6-.5-49.7-19-87.7-19.1m277.5 81.5c1.8 7.6 3 15.4 3.7 23.1-.8-7.7-2-15.5-3.7-23.1m3.6 23.1c.1.4.1.8.1 1.1 0-.3-.1-.7-.1-1.1m.1 1.1c.1 1.1.2 2.1.2 3.2 0-1-.1-2.1-.2-3.2m.2 3.2v.5zm.1.5c.2 2.6.2 5.3.3 7.9v.9-.9c-.1-2.6-.2-5.2-.3-7.9m.3 8.8v2.8zm0 2.8v1.7zm-.1 1.7c0 1-.1 2-.1 3 .1-1.1.1-2.1.1-3m0 2.9c0 .4 0 .9-.1 1.3.1-.4.1-.8.1-1.3m0 1.3c-.1 1.1-.1 2.2-.2 3.3.1-1.1.1-2.2.2-3.3m-.2 3.3c0 .5-.1.9-.1 1.4 0-.5 0-.9.1-1.4m-.1 1.4c-.1 1.1-.2 2.1-.2 3.1.1-1 .1-2 .2-3.1m-.3 3.2c-.1.5-.1.9-.1 1.4.1-.5.1-1 .1-1.4m-.1 1.4c-.1 1.1-.2 2.1-.3 3.1.1-1.1.3-2.1.3-3.1m-.3 3.1c-.1.5-.1.9-.2 1.4.1-.5.2-1 .2-1.4m-.2 1.4c-.1 1-.2 2.1-.4 3.1.2-1.1.3-2.1.4-3.1m-.3 3c-.1.5-.1.9-.2 1.4 0-.5.1-.9.2-1.4m-.2 1.4c-.2 1-.3 2.1-.5 3.1.2-1 .3-2.1.5-3.1m-.5 3.1c-.1.4-.1.8-.2 1.2.1-.4.1-.8.2-1.2m-.3 1.2c-.2 1-.4 2.1-.6 3.1.3-1 .5-2.1.6-3.1m-.6 3.5s.1 0 0 0c.1-.1.1-.3.1-.4 0 .2 0 .3-.1.4M69 314v-.1zm1.1-71.4c0 .1 0 .1-.1.2.1-.1.1-.2.1-.2" style="fill:#e8e7e5"/><g id="layer8"><path id="path5845-8-9" d="M171.4 161.1c-12.4.1-25.9 2.1-40.6 7.5-34.8 12.7-53.2 41.9-60.7 74 9.9-7.2 19-13.1 29.4-17.7 9.4-27.6 34.8-51 80.4-63.6-2.8-.1-5.6-.2-8.5-.2m-48.9 163.1c-16.4-1.7-31-5.4-53.5-10.2 16.6 84 96.5 135.6 191 135.6 82.2 0 153.4-39.1 181.4-104.5-130.3 102.1-263.2 53.3-318.9-20.9M69 314v-.1zm0-.1c-.2-1.2-.5-2.5-.7-3.8.1 1.2.4 2.5.7 3.8m-.7-3.8c-.1-.2-.1-.4-.1-.5 0 .1 0 .3.1.5m-.2-.5c-.2-1.2-.4-2.5-.6-3.8.2 1.2.5 2.5.6 3.8m-.6-3.8c0-.2-.1-.4-.1-.6.1.2.1.3.1.6m0-.6c-.2-1.2-.4-2.5-.5-3.8.1 1.3.3 2.5.5 3.8m-.5-3.8c0-.2-.1-.5-.1-.7.1.2.1.5.1.7m-.1-.7c-.1-1.2-.3-2.5-.4-3.8.2 1.3.3 2.6.4 3.8m-.4-3.8c0-.2-.1-.4-.1-.6.1.2.1.4.1.6m0-.6c-.1-1.3-.2-2.7-.3-4 0 1.4.2 2.7.3 4m-.3-3.9c0-.2 0-.4-.1-.5 0 .1 0 .3.1.5m-.1-.6c-.1-1.4-.2-2.7-.2-4.1.1 1.4.2 2.8.2 4.1m-.2-4v-.5zm0-.5c-.1-1.4-.1-2.7-.1-4.1 0 1.4.1 2.7.1 4.1m-.1-4.2v-.4zm0-.3v-4.4zm0-4.4c0-1.4.1-2.8.1-4.3 0 1.4-.1 2.9-.1 4.3m.1-4.3c0-.5.1-.9.1-1.5 0 .6-.1 1-.1 1.5m.1-1.5c.1-.9.1-2 .2-2.9-.1 1-.1 2-.2 2.9m.2-2.9c.1-.5.1-1.1.1-1.6-.1.6-.1 1.1-.1 1.6m.1-1.6c.1-.9.1-1.8.2-2.7-.1.9-.1 1.8-.2 2.7m.2-2.7c.1-1.1.2-2.3.4-3.4-.2 1.1-.3 2.3-.4 3.4m.3-3.4c0-.2.1-.4.1-.6 0 .2-.1.4-.1.6m.1-.6c.1-1.2.3-2.4.5-3.7-.2 1.3-.4 2.5-.5 3.7m.5-3.7c0-.2.1-.4.1-.5-.1.2-.1.3-.1.5m0-.5c.2-1.2.4-2.4.5-3.7-.1 1.3-.3 2.4-.5 3.7m.6-3.7c0-.2.1-.4.1-.5-.1.2-.1.3-.1.5m.1-.5c.2-1.2.4-2.5.7-3.7-.3 1.2-.5 2.4-.7 3.7m2-10.4c0 .1 0 .1-.1.2.1-.1.1-.2.1-.2m0 .2c-.1.5-.2 1-.4 1.5.1-.5.3-1 .4-1.5m-.4 1.5c-.1.2-.1.4-.1.6.1-.2.1-.4.1-.6m-.1.6c-.1.1-.1.3-.1.4.1-.1.1-.3.1-.4m-.1.4c-.3 1.2-.5 2.5-.8 3.7.3-1.2.6-2.5.8-3.7m-.7 3.7c0 .1-.1.2-.1.2 0-.1 0-.1.1-.2" style="fill:#d3d0d6"/></g></g><g id="layer5"><path id="path5845-8-0" d="M228.7 273.9c-.4-18.7-21-62.4-81-59.2-37 2-55.2 11.9-77.6 28-2.8 11.8-4.1 23.9-4.3 35.8-.2 12.4.9 24.3 3.1 35.7 30.4 6.6 46.2 10.9 71.9 11.3 10.2.2 47-1.5 64.6-11.2 15.3-8.6 23.7-20.2 23.3-40.4" class="st4"/><path id="path5845-8-0-4" d="M291.1 273.9c.4-18.7 21-62.4 81-59.2 37 2 55.2 11.9 77.6 28 2.8 11.8 4.1 23.9 4.3 35.8.2 12.4-.9 24.3-3.1 35.7-30.4 6.6-46.2 10.9-71.9 11.3-10.2.2-47-1.5-64.6-11.2-15.2-8.6-23.6-20.2-23.3-40.4" class="st4"/><g id="layer9"><path id="path5845-8-0-5" d="M99.4 225.1c-10.3 4.6-19.4 10.5-29.3 17.7-2.8 11.8-4.1 23.9-4.3 35.8-.2 12.4.9 24.3 3.1 35.7 22.6 4.9 37.1 8.5 53.6 10.2-21.3-27.5-31.7-64.8-23.1-99.4" style="fill:#5e6f7e"/></g></g><g id="layer6"><path id="path6025" d="M206.2 279.2c-.1 14.2-13.8 17.2-18.8 4.8-3.3-8-9.8-12-18.6-11.6-7.3.4-14 6.4-15.5 11.4-3.6 11.5-19.3 9.5-19.6-2.2-.5-16.6 15.7-32.9 35.9-33.9s36.6 17.3 36.6 31.5" class="st6"/><path id="path6017-4" d="M278.5 316.6c1.2-1.4 2-3.2 2.3-5 .2-1.8-.2-3.8-1.3-5.3-.8-1-1.9-1.7-3.1-2.2s-2.4-.8-3.7-1c-4.2-.7-8.5-.8-12.7-.8-4.3 0-8.5.1-12.7.8-1.2.2-2.5.5-3.7 1s-2.3 1.2-3.1 2.2c-1.1 1.5-1.6 3.4-1.3 5.3.2 1.8 1.1 3.5 2.3 5 2.1 2.7 5.2 4.4 8.5 5.3s6.7 1.2 10.1 1.2 6.8-.2 10.1-1.2 6.2-2.7 8.3-5.3" class="st6"/><path id="path6021-1" d="M276.7 357.9c7 .7 14.3-.7 19.9-4.6 1.3-.9 2.5-2.1 3.4-3.4.8-1.4 1.2-3 .8-4.4s-1.4-2.6-2.8-3.3-3-.8-4.6-.5c-1.1.2-2 .7-3 1.1-4 1.7-8.4 2.5-12.7 2.2-4.4-.3-8.6-1.7-12.2-4-2.2-1.4-4-3.2-5.5-5.2-1.5 2-3.4 3.8-5.5 5.2-3.5 2.3-7.8 3.7-12.2 4-4.4.2-8.8-.5-12.7-2.2-1-.4-2-.9-3-1.1-1.5-.4-3.2-.2-4.6.5s-2.4 1.9-2.8 3.3c-.4 1.5-.1 3.1.8 4.4s2.1 2.4 3.4 3.4c5.5 3.9 12.9 5.3 19.9 4.6 6-.6 11.9-2.7 16.8-6 4.7 3.4 10.6 5.4 16.6 6" class="st6"/><path id="path6025-8" d="M313.7 279.1c0 14.2 13.7 17.3 18.8 4.8 3.3-8 9.8-11.9 18.6-11.5 7.3.4 14 6.4 15.5 11.5 3.5 11.5 19.2 9.6 19.6-2.2.5-16.6-15.5-32.9-35.8-34-20.2-1-36.7 17.2-36.7 31.4" class="st6"/></g></svg>

<svg xmlns:cc="http://creativecommons.org/ns#" xmlns:inkscape="http://www.inkscape.org/namespaces/inkscape" xmlns:rdf="http://www.w3.org/1999/02/22-rdf-syntax-ns#" xmlns:dc="http://purl.org/dc/elements/1.1/" xmlns:sodipodi="http://sodipodi.sourceforge.net/DTD/sodipodi-0.dtd" xmlns:svg="http://www.w3.org/2000/svg" xmlns="http://www.w3.org/2000/svg" xmlns:xlink="http://www.w3.org/1999/xlink" version="1.1" id="SVGRoot" x="0px" y="0px" style="enable-background:new 0 0 512 512;" xml:space="preserve" viewBox="0.12 29.2 511.9 453.8">
<style type="text/css">
	.st0{fill:#DF8958;}
	.st1{fill:#C76C33;}
	.st2{fill:#E8E7E5;}
	.st3{fill:#D3D0D6;}
	.st4{fill:#77889B;}
	.st5{fill:#5E6F7E;}
	.st6{fill:#333A42;}
</style>
<g>
	<defs>
		<inkscape:path-effect effect="spiro" id="path-effect6023" is_visible="true"/>
		<inkscape:path-effect effect="spiro" id="path-effect6019" is_visible="true"/>
		<inkscape:path-effect effect="spiro" id="path-effect6019-2" is_visible="true"/>
		<inkscape:path-effect effect="spiro" id="path-effect6023-8" is_visible="true"/>
	</defs>
	
		<sodipodi:namedview bordercolor="#666666" borderopacity="1.0" id="base" inkscape:current-layer="layer6" inkscape:cx="1224.3714" inkscape:cy="350.3647" inkscape:document-units="px" inkscape:guide-bbox="true" inkscape:pageopacity="0.0" inkscape:pageshadow="2" inkscape:window-height="1057" inkscape:window-maximized="1" inkscape:window-width="1920" inkscape:window-x="-8" inkscape:window-y="-8" inkscape:zoom="0.35355339" pagecolor="#ffffff" showgrid="false" showguides="true">
		</sodipodi:namedview>
	<g id="layer1" inkscape:groupmode="layer" inkscape:label="head shape">
		<a id="a5675" transform="translate(25.57926,-3.7386984)">
			<path id="path5669" inkscape:connector-curvature="0" sodipodi:nodetypes="ccccsccccscccsscc" class="st0" d="M465.9,305     c28.9,24.5,23.8,60,6.2,76.3c8.3,76.2-42.6,73.1-50.8,43.9c-24.9,32.8-42.9,21-45.9,18.9c-30.7,21.7-80.7,42.6-142.5,42.6     c-53,0-101.8-15.8-140.9-42.5c-19,12.7-38.7,5.1-49.8-12.4c-40,42.1-58.9-6-47.5-35.9c-28.6-14.2-27.3-48.6,7.3-90.6     c-1.3-8.9-2-18-2-27.1c0-80.3,55.2-169,125-184.9c-45.6-29.7,2.4-65.1,50.4-29.4c16.6-40.3,57.8-40.4,58.9-5.3     c63.2-1,98.4,22.4,129.9,38.9c17.2,9,38,18.6,62.3,19.7c29.4,1.4,44.6,32.9,13.3,57.5C458.2,205.5,465.7,236.8,465.9,305     L465.9,305z"/>
		</a>
		<g id="layer2" inkscape:groupmode="layer" inkscape:label="head shadow">
			<a id="a5675-6" transform="translate(25.57926,-3.7386984)">
				<path id="path5669-3" inkscape:connector-curvature="0" sodipodi:nodetypes="ccccc" class="st1" d="M388.1,159.2      c20.8,0.1,34.2,6.7,68.8-11.2c-1,8.7-6.3,18-17.1,26.6c1.2,2.1,2.5,4.3,3.6,6.4C415.7,178.6,397,168.3,388.1,159.2L388.1,159.2z      "/>
			</a>
			<path id="path5669-2" inkscape:connector-curvature="0" sodipodi:nodetypes="ccccsccccsccccc" class="st1" d="M436.6,332.6     c7,27.4,33.7,45.6,61.1,45c8.3,76.2-42.6,73.1-50.8,43.9c-24.9,32.8-42.9,21-45.9,18.9c-30.7,21.7-80.7,42.6-142.5,42.6     c-53,0-101.8-15.8-140.9-42.5c-19,12.7-38.7,5.1-49.8-12.4c-40,42.1-58.9-6-47.5-35.9c-28.6-14.2-27.3-48.6,7.3-90.6     c-1.3-8.9-2-18-2-27.1c0-80.3,55.2-169.1,125-184.9c-18.1-11.8-21.5-24.5-16-33.2c7.2,18.3,31.2,34.8,60.4,36.5     c-70.2,22.6-49.1,50.4-10.8,71.2C236.2,245.8,433.4,280.5,436.6,332.6L436.6,332.6z"/>
		</g>
	</g>
	<g id="layer4" inkscape:groupmode="layer" inkscape:label="face shape">
		<path id="path5845-8" inkscape:connector-curvature="0" class="st2" d="M172.3,161.1c-12.7,0-26.4,2-41.4,7.5    c-34.8,12.7-53.2,41.9-60.7,74c22.3-16.1,40.6-26.1,77.6-28c60-3.2,80.6,40.6,81,59.2c0.4,20.2-8,31.9-23.2,40.3    c-17.6,9.7-54.3,11.4-64.6,11.2c-25.7-0.4-41.5-4.7-71.9-11.3c16.6,84,96.5,135.6,191,135.6S434.3,398,450.9,314    c-30.4,6.6-46.2,10.9-71.9,11.3c-10.2,0.2-47-1.5-64.6-11.2c-15.2-8.4-23.6-20.1-23.2-40.3c0.4-18.7,21-62.4,81-59.2    c37,2,55.2,11.9,77.6,28c-7.6-32.1-26-61.3-60.7-74c-60-21.8-100.3,10.9-129.1,11.6C238.4,179.7,210.3,161.2,172.3,161.1z     M449.8,242.6c1.8,7.6,3,15.4,3.7,23.1C452.7,258,451.5,250.2,449.8,242.6L449.8,242.6L449.8,242.6z M453.4,265.7    c0.1,0.4,0.1,0.8,0.1,1.1C453.5,266.5,453.4,266.1,453.4,265.7z M453.5,266.8c0.1,1.1,0.2,2.1,0.2,3.2    C453.7,269,453.6,267.9,453.5,266.8z M453.7,270c0,0.2,0,0.4,0,0.5C453.7,270.4,453.7,270.2,453.7,270z M453.8,270.5    c0.2,2.6,0.2,5.3,0.3,7.9c0,0.3,0,0.6,0,0.9c0-0.3,0-0.6,0-0.9C454,275.8,453.9,273.2,453.8,270.5L453.8,270.5z M454.1,279.3    c0,0.9,0,1.9,0,2.8C454.1,281.2,454.1,280.2,454.1,279.3z M454.1,282.1c0,0.5,0,1.1,0,1.7C454.1,283.2,454.1,282.7,454.1,282.1z     M454,283.8c0,1-0.1,2-0.1,3C454,285.7,454,284.7,454,283.8z M454,286.7c0,0.4,0,0.9-0.1,1.3C454,287.6,454,287.2,454,286.7z     M454,288c-0.1,1.1-0.1,2.2-0.2,3.3C453.9,290.2,453.9,289.1,454,288z M453.8,291.3c0,0.5-0.1,0.9-0.1,1.4    C453.7,292.2,453.7,291.8,453.8,291.3z M453.7,292.7c-0.1,1.1-0.2,2.1-0.2,3.1C453.6,294.8,453.6,293.8,453.7,292.7z M453.4,295.9    c-0.1,0.5-0.1,0.9-0.1,1.4C453.4,296.8,453.4,296.3,453.4,295.9z M453.3,297.3c-0.1,1.1-0.2,2.1-0.3,3.1    C453.1,299.3,453.3,298.3,453.3,297.3z M453,300.4c-0.1,0.5-0.1,0.9-0.2,1.4C452.9,301.3,453,300.8,453,300.4z M452.8,301.8    c-0.1,1-0.2,2.1-0.4,3.1C452.6,303.8,452.7,302.8,452.8,301.8z M452.5,304.8c-0.1,0.5-0.1,0.9-0.2,1.4    C452.3,305.7,452.4,305.3,452.5,304.8z M452.3,306.2c-0.2,1-0.3,2.1-0.5,3.1C452,308.3,452.1,307.2,452.3,306.2z M451.8,309.3    c-0.1,0.4-0.1,0.8-0.2,1.2C451.7,310.1,451.7,309.7,451.8,309.3z M451.5,310.5c-0.2,1-0.4,2.1-0.6,3.1    C451.2,312.6,451.4,311.5,451.5,310.5z M450.9,314C450.9,314,451,314,450.9,314c0.1-0.1,0.1-0.3,0.1-0.4    C451,313.8,451,313.9,450.9,314L450.9,314z M69,314c0-0.1,0-0.1,0-0.1C69,313.9,69,314,69,314L69,314L69,314z M70.1,242.6    L70.1,242.6c0,0.1,0,0.1-0.1,0.2C70.1,242.7,70.1,242.6,70.1,242.6L70.1,242.6z"/>
		<g id="layer8" inkscape:groupmode="layer" inkscape:label="face shadow">
			
				<path id="path5845-8-9" inkscape:connector-curvature="0" sodipodi:nodetypes="sscccsccscccccccccccccccccccccccccccccccccccccccccccccccccccccccccccccccccccccccccccccccccccccccccccccccccccccccccccc" class="st3" d="     M171.4,161.1c-12.4,0.1-25.9,2.1-40.6,7.5c-34.8,12.7-53.2,41.9-60.7,74c9.9-7.2,19-13.1,29.4-17.7c9.4-27.6,34.8-51,80.4-63.6     C177.1,161.2,174.3,161.1,171.4,161.1z M122.5,324.2c-16.4-1.7-31-5.4-53.5-10.2c16.6,84,96.5,135.6,191,135.6     c82.2,0,153.4-39.1,181.4-104.5C311.1,447.2,178.2,398.4,122.5,324.2z M69,314c0-0.1,0-0.1,0-0.1C69,313.9,69,314,69,314L69,314     L69,314z M69,313.9c-0.2-1.2-0.5-2.5-0.7-3.8C68.4,311.3,68.7,312.6,69,313.9z M68.3,310.1c-0.1-0.2-0.1-0.4-0.1-0.5     C68.2,309.7,68.2,309.9,68.3,310.1z M68.1,309.6c-0.2-1.2-0.4-2.5-0.6-3.8C67.7,307,68,308.3,68.1,309.6z M67.5,305.8     c0-0.2-0.1-0.4-0.1-0.6C67.5,305.4,67.5,305.5,67.5,305.8z M67.5,305.2c-0.2-1.2-0.4-2.5-0.5-3.8     C67.1,302.7,67.3,303.9,67.5,305.2z M67,301.4c0-0.2-0.1-0.5-0.1-0.7C67,300.9,67,301.2,67,301.4z M66.9,300.7     c-0.1-1.2-0.3-2.5-0.4-3.8C66.7,298.2,66.8,299.5,66.9,300.7z M66.5,296.9c0-0.2-0.1-0.4-0.1-0.6     C66.5,296.5,66.5,296.7,66.5,296.9z M66.5,296.3c-0.1-1.3-0.2-2.7-0.3-4C66.2,293.7,66.4,295,66.5,296.3z M66.2,292.4     c0-0.2,0-0.4-0.1-0.5C66.1,292,66.1,292.2,66.2,292.4z M66.1,291.8c-0.1-1.4-0.2-2.7-0.2-4.1C66,289.1,66.1,290.5,66.1,291.8z      M65.9,287.8c0-0.2,0-0.4,0-0.5C65.9,287.5,65.9,287.6,65.9,287.8z M65.9,287.3c-0.1-1.4-0.1-2.7-0.1-4.1     C65.8,284.6,65.9,285.9,65.9,287.3z M65.8,283.1c0-0.1,0-0.2,0-0.4C65.8,282.9,65.8,283,65.8,283.1z M65.8,282.8     c0-1.5,0-2.9,0-4.4C65.8,279.8,65.8,281.3,65.8,282.8z M65.8,278.4c0-1.4,0.1-2.8,0.1-4.3C65.9,275.5,65.8,277,65.8,278.4z      M65.9,274.1c0-0.5,0.1-0.9,0.1-1.5C66,273.2,65.9,273.6,65.9,274.1z M66,272.6c0.1-0.9,0.1-2,0.2-2.9     C66.1,270.7,66.1,271.7,66,272.6z M66.2,269.7c0.1-0.5,0.1-1.1,0.1-1.6C66.2,268.7,66.2,269.2,66.2,269.7z M66.3,268.1     c0.1-0.9,0.1-1.8,0.2-2.7C66.4,266.3,66.4,267.2,66.3,268.1z M66.5,265.4c0.1-1.1,0.2-2.3,0.4-3.4     C66.7,263.1,66.6,264.3,66.5,265.4z M66.8,262c0-0.2,0.1-0.4,0.1-0.6C66.9,261.6,66.8,261.8,66.8,262z M66.9,261.4     c0.1-1.2,0.3-2.4,0.5-3.7C67.2,259,67,260.2,66.9,261.4z M67.4,257.7c0-0.2,0.1-0.4,0.1-0.5C67.4,257.4,67.4,257.5,67.4,257.7z      M67.4,257.2c0.2-1.2,0.4-2.4,0.5-3.7C67.8,254.8,67.6,255.9,67.4,257.2z M68,253.5c0-0.2,0.1-0.4,0.1-0.5     C68,253.2,68,253.3,68,253.5z M68.1,253c0.2-1.2,0.4-2.5,0.7-3.7C68.5,250.5,68.3,251.7,68.1,253z M70.1,242.6L70.1,242.6     c0,0.1,0,0.1-0.1,0.2C70.1,242.7,70.1,242.6,70.1,242.6L70.1,242.6z M70.1,242.8c-0.1,0.5-0.2,1-0.4,1.5     C69.8,243.8,70,243.3,70.1,242.8z M69.7,244.3c-0.1,0.2-0.1,0.4-0.1,0.6C69.7,244.7,69.7,244.5,69.7,244.3z M69.6,244.9     c-0.1,0.1-0.1,0.3-0.1,0.4C69.6,245.2,69.6,245,69.6,244.9z M69.5,245.3c-0.3,1.2-0.5,2.5-0.8,3.7     C69,247.8,69.3,246.5,69.5,245.3z M68.8,249c0,0.1-0.1,0.2-0.1,0.2C68.7,249.1,68.7,249.1,68.8,249z"/>
		</g>
	</g>
	<g id="layer5" inkscape:groupmode="layer" inkscape:label="eye shape">
		<path id="path5845-8-0" inkscape:connector-curvature="0" sodipodi:nodetypes="sscscsss" class="st4" d="M228.7,273.9    c-0.4-18.7-21-62.4-81-59.2c-37,2-55.2,11.9-77.6,28c-2.8,11.8-4.1,23.9-4.3,35.8c-0.2,12.4,0.9,24.3,3.1,35.7    c30.4,6.6,46.2,10.9,71.9,11.3c10.2,0.2,47-1.5,64.6-11.2C220.7,305.7,229.1,294.1,228.7,273.9z"/>
		<path id="path5845-8-0-4" inkscape:connector-curvature="0" sodipodi:nodetypes="sscscsss" class="st4" d="M291.1,273.9    c0.4-18.7,21-62.4,81-59.2c37,2,55.2,11.9,77.6,28c2.8,11.8,4.1,23.9,4.3,35.8c0.2,12.4-0.9,24.3-3.1,35.7    c-30.4,6.6-46.2,10.9-71.9,11.3c-10.2,0.2-47-1.5-64.6-11.2C299.2,305.7,290.8,294.1,291.1,273.9L291.1,273.9z"/>
		<g id="layer9" inkscape:groupmode="layer" inkscape:label="eye shadow">
			<path id="path5845-8-0-5" inkscape:connector-curvature="0" sodipodi:nodetypes="ccsccc" class="st5" d="M99.4,225.1     c-10.3,4.6-19.4,10.5-29.3,17.7c-2.8,11.8-4.1,23.9-4.3,35.8c-0.2,12.4,0.9,24.3,3.1,35.7c22.6,4.9,37.1,8.5,53.6,10.2     C101.2,297,90.8,259.7,99.4,225.1L99.4,225.1z"/>
		</g>
	</g>
	<g id="layer6" inkscape:groupmode="layer" inkscape:label="face">
		<path id="path6025" inkscape:connector-curvature="0" sodipodi:nodetypes="zsssssz" class="st6" d="M206.2,279.2    c-0.1,14.2-13.8,17.2-18.8,4.8c-3.3-8-9.8-12-18.6-11.6c-7.3,0.4-14,6.4-15.5,11.4c-3.6,11.5-19.3,9.5-19.6-2.2    c-0.5-16.6,15.7-32.9,35.9-33.9C189.8,246.7,206.2,265,206.2,279.2L206.2,279.2z"/>
		
			<path id="path6017-4" inkscape:connector-curvature="0" inkscape:original-d="m 477.57741,594.4761 c -2.93731,-3.75265 -4.40959,-11.54483 -1.6106,-17.37069 2.04899,-4.82585 4.86447,-3.92398 11.45647,-5.47456 6.64692,-1.5635 14.73033,-1.375 21.50027,-1.375 6.76994,0 14.85335,-0.1885 21.50027,1.375 6.592,1.55058 9.40748,0.64871 11.45647,5.47456 2.79899,5.82586 1.32671,13.61804 -1.6106,17.37069 -2.93731,3.75265 -22.22875,10.95832 -31.34614,10.95832 -9.11739,0 -28.40883,-7.20567 -31.34614,-10.95832 z" inkscape:path-effect="#path-effect6019-2" sodipodi:nodetypes="zcsssczsz" class="st6" d="    M278.5,316.6c1.2-1.4,2-3.2,2.3-5c0.2-1.8-0.2-3.8-1.3-5.3c-0.8-1-1.9-1.7-3.1-2.2c-1.2-0.5-2.4-0.8-3.7-1    c-4.2-0.7-8.5-0.8-12.7-0.8c-4.3,0-8.5,0.1-12.7,0.8c-1.2,0.2-2.5,0.5-3.7,1c-1.2,0.5-2.3,1.2-3.1,2.2c-1.1,1.5-1.6,3.4-1.3,5.3    c0.2,1.8,1.1,3.5,2.3,5c2.1,2.7,5.2,4.4,8.5,5.3s6.7,1.2,10.1,1.2s6.8-0.2,10.1-1.2S276.4,319.2,278.5,316.6z"/>
		
			<path id="path6021-1" inkscape:connector-curvature="0" inkscape:original-d="m 483.17544,667.64909 c -10.76277,0.0795 -24.8781,-4.22745 -30.41631,-7.82107 -4.35072,-3.21862 -9.96311,-11.03411 -6.36765,-13.21536 3.59546,-2.18124 9.75032,-7.00042 11.28338,-6.35323 1.53307,0.64718 -8.13273,2.94727 4.5962,1.94454 12.72892,-1.00273 35.35986,-0.0579 38.18376,-3.0052 2.82391,-2.94728 5.64681,-5.89356 8.46873,-8.83884 2.82192,2.94528 5.64482,5.89156 8.46873,8.83884 2.8239,2.94727 25.45484,2.00247 38.18376,3.0052 12.72893,1.00273 3.06313,-1.29736 4.5962,-1.94454 1.53306,-0.64719 7.68792,4.17199 11.28338,6.35323 3.59546,2.18125 -2.01693,9.99674 -6.36765,13.21536 -5.53821,3.59362 -19.65354,7.90055 -30.41631,7.82107 -10.34725,-0.0764 -16.56223,-6.64887 -25.74811,-10.06555 -9.18588,3.41668 -15.40086,9.98915 -25.74811,10.06555 z" inkscape:path-effect="#path-effect6023-8" sodipodi:nodetypes="scccsscsscccscs" class="st6" d="    M276.7,357.9c7,0.7,14.3-0.7,19.9-4.6c1.3-0.9,2.5-2.1,3.4-3.4c0.8-1.4,1.2-3,0.8-4.4c-0.4-1.4-1.4-2.6-2.8-3.3    c-1.4-0.7-3-0.8-4.6-0.5c-1.1,0.2-2,0.7-3,1.1c-4,1.7-8.4,2.5-12.7,2.2c-4.4-0.3-8.6-1.7-12.2-4c-2.2-1.4-4-3.2-5.5-5.2    c-1.5,2-3.4,3.8-5.5,5.2c-3.5,2.3-7.8,3.7-12.2,4c-4.4,0.2-8.8-0.5-12.7-2.2c-1-0.4-2-0.9-3-1.1c-1.5-0.4-3.2-0.2-4.6,0.5    c-1.4,0.7-2.4,1.9-2.8,3.3c-0.4,1.5-0.1,3.1,0.8,4.4s2.1,2.4,3.4,3.4c5.5,3.9,12.9,5.3,19.9,4.6c6-0.6,11.9-2.7,16.8-6    C264.8,355.3,270.7,357.3,276.7,357.9L276.7,357.9z"/>
		<path id="path6025-8" inkscape:connector-curvature="0" sodipodi:nodetypes="zsssssz" class="st6" d="M313.7,279.1    c0,14.2,13.7,17.3,18.8,4.8c3.3-8,9.8-11.9,18.6-11.5c7.3,0.4,14,6.4,15.5,11.5c3.5,11.5,19.2,9.6,19.6-2.2    c0.5-16.6-15.5-32.9-35.8-34C330.2,246.7,313.7,264.9,313.7,279.1L313.7,279.1z"/>
	</g>
</g>
</svg>
